picto/aluminium-recycling.svg

<svg class="color-immutable" width="24" height="24" viewBox="0 0 24 24" fill="none" xmlns="http://www.w3.org/2000/svg"><path d="M0 22.5V1.5C0 0.675 0.675 0 1.5 0H22.5C23.325 0 24 0.675 24 1.5V22.5C24 23.325 23.325 24 22.5 24H1.5C0.675 24 0 23.325 0 22.5Z" fill="#2D327D"/><path fill-rule="evenodd" clip-rule="evenodd" d="M4.07901 9.11699C4.06401 9.09199 4.04901 9.06699 4.03501 9.04099C3.70601 8.47499 3.37601 7.90799 3.04701 7.34199C2.98601 7.23699 2.98301 7.13299 3.04601 7.02499C3.22001 6.72999 3.39101 6.43299 3.56401 6.13699C3.56801 6.12999 3.57201 6.12199 3.57801 6.11099C3.40001 6.00599 3.22201 5.90099 3.04401 5.79599C3.04401 5.79399 3.04501 5.79199 3.04501 5.78999C3.05401 5.78999 3.06301 5.78999 3.07101 5.78999C3.63201 5.78999 4.19301 5.78999 4.75401 5.78999C4.77301 5.78999 4.78601 5.79199 4.79801 5.81099C5.08501 6.30499 5.37301 6.79799 5.66101 7.29099C5.66401 7.29599 5.66701 7.30199 5.67401 7.31599C5.48901 7.20899 5.31101 7.10699 5.13201 7.00299C5.12401 7.01499 5.11801 7.02499 5.11301 7.03499C4.79001 7.59399 4.46701 8.15299 4.14301 8.71199C4.07301 8.83299 4.04701 8.95999 4.08301 9.09699C4.08501 9.10299 4.08401 9.10899 4.08501 9.11599C4.08301 9.11599 4.08101 9.11599 4.07901 9.11699Z" fill="white"/><path fill-rule="evenodd" clip-rule="evenodd" d="M9.07204 4.072C9.25104 3.969 9.42604 3.867 9.61104 3.761C9.60404 3.777 9.60104 3.785 9.59604 3.792C9.31604 4.28 9.03604 4.768 8.75604 5.256C8.74804 5.271 8.73904 5.279 8.72004 5.279C8.15004 5.28 7.57904 5.283 7.00904 5.285C7.00404 5.285 6.99904 5.285 6.98404 5.284C7.16604 5.176 7.34104 5.074 7.51904 4.97C7.51104 4.957 7.50604 4.946 7.49904 4.935C7.18104 4.38 6.86204 3.824 6.54404 3.268C6.47204 3.142 6.37404 3.05 6.23004 3.015C6.22604 3.014 6.22304 3.011 6.21204 3.005C6.23104 3.005 6.24104 3.005 6.25204 3.005C6.89604 3.003 7.54104 3.001 8.18504 3C8.24404 3 8.30304 3 8.36104 3.009C8.44304 3.021 8.49904 3.074 8.54004 3.145C8.71404 3.449 8.88804 3.753 9.06204 4.057C9.06504 4.061 9.06804 4.065 9.07204 4.072Z" fill="white"/><path fill-rule="evenodd" clip-rule="evenodd" d="M7.88004 9.948C7.88004 10.156 7.88004 10.36 7.88004 10.564C7.87704 10.565 7.87504 10.565 7.87204 10.566C7.86704 10.559 7.86204 10.552 7.85804 10.545C7.57804 10.058 7.29704 9.572 7.01704 9.085C7.00804 9.071 7.00404 9.06 7.01404 9.043C7.30004 8.545 7.58604 8.047 7.87104 7.549C7.87304 7.546 7.87504 7.544 7.88004 7.537C7.88004 7.745 7.88004 7.95 7.88004 8.159C7.89504 8.159 7.90704 8.159 7.91904 8.159C8.56204 8.159 9.20604 8.159 9.84904 8.159C9.99204 8.159 10.118 8.115 10.221 8.014C10.225 8.011 10.229 8.008 10.24 8C10.23 8.018 10.225 8.028 10.22 8.038C9.89604 8.6 9.57304 9.163 9.24904 9.725C9.22004 9.775 9.19104 9.825 9.15504 9.87C9.10604 9.93 9.03604 9.951 8.96104 9.951C8.78804 9.951 8.61604 9.949 8.44304 9.949C8.26904 9.949 8.09604 9.949 7.92204 9.949C7.91004 9.948 7.89904 9.948 7.88004 9.948Z" fill="white"/><path fill-rule="evenodd" clip-rule="evenodd" d="M6.59004 8.153C6.59004 8.749 6.59004 9.341 6.59004 9.935C6.57704 9.935 6.56604 9.935 6.55404 9.935C6.13904 9.935 5.72404 9.945 5.31004 9.932C4.93604 9.921 4.65204 9.746 4.49204 9.397C4.42304 9.248 4.39004 9.091 4.41404 8.927C4.42104 8.878 4.43604 8.827 4.46004 8.785C4.57504 8.581 4.69404 8.38 4.81004 8.178C4.82104 8.159 4.83304 8.153 4.85504 8.153C5.42304 8.154 5.99004 8.153 6.55804 8.153C6.56704 8.153 6.57804 8.153 6.59004 8.153Z" fill="white"/><path fill-rule="evenodd" clip-rule="evenodd" d="M8.19904 6.31599C8.71204 6.01899 9.22404 5.72299 9.73604 5.42599C9.74404 5.43799 9.75003 5.44799 9.75603 5.45699C9.96403 5.81399 10.18 6.16699 10.378 6.52999C10.517 6.78499 10.545 7.05899 10.423 7.33499C10.339 7.52399 10.21 7.67199 10.033 7.77699C9.95704 7.82099 9.87803 7.84499 9.78903 7.84399C9.56203 7.84199 9.33404 7.84299 9.10704 7.84399C9.08904 7.84399 9.07704 7.84099 9.06604 7.82299C8.78104 7.32599 8.49404 6.82999 8.20804 6.33399C8.20504 6.32899 8.20304 6.32399 8.19904 6.31599Z" fill="white"/><path fill-rule="evenodd" clip-rule="evenodd" d="M4.258 4.77001C4.313 4.67301 4.366 4.58001 4.419 4.48701C4.577 4.20801 4.73 3.92801 4.894 3.65301C5.036 3.41601 5.248 3.26801 5.523 3.22701C5.74 3.19401 5.947 3.23201 6.138 3.34201C6.211 3.38501 6.271 3.44001 6.313 3.51501C6.427 3.71301 6.542 3.91001 6.657 4.10801C6.667 4.12501 6.669 4.13801 6.658 4.15601C6.375 4.64901 6.093 5.14401 5.811 5.63801C5.807 5.64401 5.804 5.65001 5.797 5.66101C5.285 5.36401 4.773 5.06801 4.258 4.77001Z" fill="white"/><path d="M14.599 7.87801C14.522 7.93701 14.456 8.01101 14.406 8.09701L9.48199 16.626L15.977 20.376L20.901 11.848C20.951 11.762 20.982 11.668 20.995 11.571L14.599 7.87801Z" fill="white"/><path d="M20.687 9.81301C20.666 9.70701 20.6 9.61501 20.507 9.56101L19.357 8.89701L19.638 8.41001C19.742 8.23101 19.68 8.00101 19.501 7.89801L18.527 7.33501C18.348 7.23101 18.118 7.29301 18.015 7.47201L17.733 7.96001L16.58 7.29401C16.486 7.24001 16.374 7.22901 16.271 7.26401L15.484 7.53301L20.849 10.631L20.687 9.81301ZM18.058 8.14801C18.213 7.87901 18.557 7.78701 18.826 7.94201C19.095 8.09701 19.187 8.44101 19.032 8.71001L18.296 8.28501L18.058 8.14801Z" fill="white"/><path d="M9.82403 18.443C9.85303 18.529 9.91303 18.601 9.99103 18.646L13.97 20.943C14.048 20.988 14.14 21.004 14.229 20.986L15.223 20.794L9.49603 17.488L9.82403 18.443Z" fill="white"/></svg>

<svg class="color-immutable" width="24" height="24" viewBox="0 0 24 24" fill="none" xmlns="http://www.w3.org/2000/svg"><g clip-path="url(#a)"><path d="M0 22.5v-21C0 .675.675 0 1.5 0h21c.825 0 1.5.675 1.5 1.5v21c0 .825-.675 1.5-1.5 1.5h-21C.675 24 0 23.325 0 22.5Z" fill="#2D327D"/><path fill-rule="evenodd" clip-rule="evenodd" d="m4.079 9.117-.044-.076-.988-1.699a.293.293 0 0 1-.001-.317c.174-.295.345-.592.518-.888l.014-.026-.534-.315.001-.006h1.709c.019 0 .032.002.044.021a715.412 715.412 0 0 0 .876 1.505l-.542-.313a.295.295 0 0 0-.019.032l-.97 1.677a.492.492 0 0 0-.06.385c.002.006.001.012.002.019l-.006.001ZM9.072 4.072l.539-.311c-.007.016-.01.024-.015.031l-.84 1.464c-.008.015-.017.023-.036.023l-1.711.006-.025-.001c.182-.108.357-.21.535-.314l-.02-.035-.955-1.667a.489.489 0 0 0-.314-.253c-.004-.001-.007-.004-.018-.01h.04L8.185 3c.059 0 .118 0 .176.009.082.012.138.065.179.136l.522.912a.128.128 0 0 1 .01.015ZM7.88 9.948v.616l-.008.002-.014-.021-.841-1.46c-.009-.014-.013-.025-.003-.042l.857-1.494.009-.012v.622H9.849a.51.51 0 0 0 .372-.145L10.24 8a.856.856 0 0 0-.02.038l-.971 1.687c-.029.05-.058.1-.094.145-.049.06-.119.081-.194.081l-.518-.002h-.521l-.042-.001Z" fill="#fff"/><path fill-rule="evenodd" clip-rule="evenodd" d="M6.59 8.153v1.782h-.036c-.415 0-.83.01-1.244-.003-.374-.011-.658-.186-.818-.535a.82.82 0 0 1-.078-.47.409.409 0 0 1 .046-.142c.115-.204.234-.405.35-.607.011-.019.023-.025.045-.025H6.59ZM8.199 6.316l1.537-.89.02.031c.208.357.424.71.622 1.073a.877.877 0 0 1 .045.805.948.948 0 0 1-.39.442.464.464 0 0 1-.244.067 51.68 51.68 0 0 0-.682 0c-.018 0-.03-.003-.041-.021-.285-.497-.572-.993-.858-1.489l-.009-.018ZM4.258 4.77l.161-.283c.158-.279.311-.559.475-.834a.857.857 0 0 1 .629-.426.925.925 0 0 1 .615.115.461.461 0 0 1 .175.173l.344.593c.01.017.012.03.001.048-.283.493-.565.988-.847 1.482l-.014.023-1.539-.891Z" fill="#fff"/><path d="M14.599 7.878a.752.752 0 0 0-.193.219l-4.924 8.529 6.495 3.75 4.924-8.528a.747.747 0 0 0 .094-.277l-6.396-3.693ZM20.687 9.813a.377.377 0 0 0-.18-.252l-1.15-.664.281-.487a.374.374 0 0 0-.137-.512l-.974-.563a.374.374 0 0 0-.512.137l-.282.488-1.153-.666a.376.376 0 0 0-.309-.03l-.787.269 5.365 3.098-.162-.818Zm-2.629-1.665a.562.562 0 0 1 .974.562l-.736-.425-.238-.137ZM9.824 18.443a.372.372 0 0 0 .167.203l3.979 2.297c.078.045.17.061.259.043l.994-.192-5.727-3.306.328.955Z" fill="#fff"/></g><defs><clipPath id="a"><path fill="#fff" d="M0 0h24v24H0z"/></clipPath></defs></svg>
